packages/components/Atoms/Icon/assets/img/rpl_icon_alert_flood.svg

<svg width="20" height="20" viewBox="0 0 20 20" overflow="visible" xmlns="http://www.w3.org/2000/svg">
  <path d="M12.327 16.252C10.994 17.104 9.051 17.104 7.718 16.252C7.697 16.266 7.674 16.274 7.652 16.287C7.559 16.346 7.46 16.394 7.362 16.444C7.25767 16.4976 7.15089 16.5464 7.042 16.59C6.79719 16.6915 6.54249 16.7672 6.282 16.816C6.224 16.827 6.17 16.843 6.112 16.852C5.88171 16.8914 5.64862 16.9121 5.415 16.914C5.41 16.914 5.407 16.911 5.402 16.911L5.372 16.914C4.55606 16.9169 3.75618 16.6872 3.066 16.252C2.876 16.372 2.676 16.47 2.466 16.556C4.303 18.661 6.996 20 10 20C13.004 20 15.696 18.663 17.53 16.56C17.3247 16.4734 17.1268 16.3704 16.938 16.252C15.601 17.104 13.66 17.104 12.328 16.252H12.327ZM0 10C0 11.82 0.495 13.522 1.35 14.994C1.76 14.905 2.144 14.73 2.425 14.451C2.59511 14.282 2.82519 14.1871 3.065 14.1871C3.30481 14.1871 3.53489 14.282 3.705 14.451C4.391 15.13 5.657 15.231 6.514 14.835C6.566 14.808 6.622 14.785 6.673 14.755C6.727 14.723 6.776 14.687 6.825 14.651C6.914 14.587 7.002 14.525 7.077 14.451C7.24707 14.2811 7.47762 14.1857 7.718 14.1857C7.95838 14.1857 8.18893 14.2811 8.359 14.451C9.183 15.269 10.863 15.269 11.686 14.451C11.8561 14.2811 12.0866 14.1857 12.327 14.1857C12.5674 14.1857 12.7979 14.2811 12.968 14.451C13.791 15.268 15.468 15.269 16.296 14.451C16.4664 14.2821 16.6966 14.1874 16.9365 14.1874C17.1764 14.1874 17.4066 14.2821 17.577 14.451C17.858 14.73 18.24 14.905 18.648 14.996C19.5328 13.4796 19.9994 11.7556 20 10C20 4.486 15.514 0 10 0C4.485 0 0 4.486 0 10ZM16.688 10.526L15.455 9.491V12.812C14.6695 12.9539 13.8606 12.8887 13.108 12.623C13.05 12.603 12.991 12.586 12.933 12.563C12.7227 12.4789 12.5206 12.3758 12.329 12.255C12.139 12.377 11.935 12.475 11.725 12.563C11.638 12.598 11.548 12.626 11.457 12.656C10.531 12.966 9.477 12.961 8.554 12.643C8.476 12.616 8.397 12.593 8.321 12.562C8.11181 12.478 7.91066 12.3753 7.72 12.255C7.698 12.269 7.675 12.278 7.654 12.291C7.48064 12.3924 7.30093 12.4826 7.116 12.561C7.09 12.571 7.067 12.584 7.043 12.594C6.79747 12.6935 6.54297 12.7691 6.283 12.82C6.225 12.832 6.172 12.847 6.113 12.856C5.885 12.893 5.652 12.916 5.416 12.916C5.091 12.916 4.816 12.88 4.546 12.829V9.49L3.31 10.526L2.143 9.134L5.416 6.364V4.546H7.272L9.415 3.029C9.57883 2.89171 9.78575 2.81647 9.9995 2.81647C10.2132 2.81647 10.4202 2.89171 10.584 3.029L17.856 9.134L16.688 10.526V10.526Z"
    fill="inherit" />
</svg>

<svg width="20" height="20" overflow="visible" xmlns="http://www.w3.org/2000/svg"><path d="M12.327 16.252c-1.333.852-3.276.852-4.609 0-.021.014-.044.022-.066.035-.093.059-.192.107-.29.157a3.754 3.754 0 01-.32.146c-.245.102-.5.177-.76.226-.058.011-.112.027-.17.036-.23.04-.463.06-.697.062-.005 0-.008-.003-.013-.003l-.03.003a4.295 4.295 0 01-2.306-.662c-.19.12-.39.218-.6.304C4.303 18.661 6.996 20 10 20c3.004 0 5.696-1.337 7.53-3.44a4.15 4.15 0 01-.592-.308c-1.337.852-3.278.852-4.61 0h-.001zM0 10c0 1.82.495 3.522 1.35 4.994.41-.089.794-.264 1.075-.543a.908.908 0 011.28 0c.686.679 1.952.78 2.809.384.052-.027.108-.05.159-.08.054-.032.103-.068.152-.104.089-.064.177-.126.252-.2a.907.907 0 011.282 0c.824.818 2.504.818 3.327 0a.907.907 0 011.282 0c.823.817 2.5.818 3.328 0a.91.91 0 011.281 0c.281.279.663.454 1.071.545A9.92 9.92 0 0020 10c0-5.514-4.486-10-10-10C4.485 0 0 4.486 0 10zm16.688.526l-1.233-1.035v3.321a4.596 4.596 0 01-2.347-.189c-.058-.02-.117-.037-.175-.06a3.728 3.728 0 01-.604-.308c-.19.122-.394.22-.604.308-.087.035-.177.063-.268.093a4.59 4.59 0 01-2.903-.013c-.078-.027-.157-.05-.233-.081a3.733 3.733 0 01-.601-.307c-.022.014-.045.023-.066.036a4.696 4.696 0 01-.538.27c-.026.01-.049.023-.073.033-.246.1-.5.175-.76.226-.058.012-.111.027-.17.036-.228.037-.461.06-.697.06-.325 0-.6-.036-.87-.087V9.49L3.31 10.526 2.143 9.134l3.273-2.77V4.546h1.856l2.143-1.517a.91.91 0 011.169 0l7.272 6.105-1.168 1.392z" fill="inherit"/></svg>
